Newaita-dark/actions/symbolic/application-exit-symbolic.svg

<svg height="16" viewBox="0 0 16 16" width="16" xmlns="http://www.w3.org/2000/svg"><g fill="#e0e0e0"><path d="m14.222656 3.101562h-12.570312c-.363282 0-.660156-.296874-.660156-.660156v-.664062c0-.363282.296874-.660156.660156-.660156h12.570312c.367188 0 .660156.296874.660156.660156v.664062c0 .363282-.292968.660156-.660156.660156zm0 0"/><path d="m2.976562 1.777344v12.570312c0 .367188-.296874.660156-.660156.660156h-.664062c-.363282 0-.660156-.292968-.660156-.660156v-12.570312c0-.363282.296874-.660156.660156-.660156h.664062c.363282 0 .660156.296874.660156.660156zm0 0"/><path d="m14.882812 2.109375v3.636719h-1.984374v-3.636719zm0 0"/><path d="m10.285156 5.40625c-.003906 0-.011718 0-.015625 0-.070312 0-.132812.023438-.1875.0625l-3.308593 2.3125c-.195313.136719-.195313.425781 0 .5625l3.308593 2.316406c.226563.160156.539063-.003906.539063-.28125v-1.324218h3.957031c.183594 0 .332031-.148438.332031-.328126v-1.324218c0-.183594-.148437-.332032-.332031-.332032h-3.957031v-1.324218c0-.183594-.148438-.335938-.335938-.339844zm0 0"/><path d="m14.222656 15.007812h-12.570312c-.363282 0-.660156-.292968-.660156-.660156v-.660156c0-.367188.296874-.664062.660156-.664062h12.570312c.367188 0 .660156.296874.660156.664062v.660156c0 .367188-.292968.660156-.660156.660156zm0 0"/><path d="m14.882812 10.378906v3.636719h-1.984374v-3.636719zm0 0"/></g></svg>

<?xml version="1.0" encoding="UTF-8"?>
<svg xmlns="http://www.w3.org/2000/svg" xmlns:xlink="http://www.w3.org/1999/xlink" width="16px" height="16px" viewBox="0 0 16 16" version="1.1">
<g id="surface1">
<path style=" stroke:none;fill-rule:nonzero;fill:rgb(87.843138%,87.843138%,87.843138%);fill-opacity:1;" d="M 14.222656 3.101562 L 1.652344 3.101562 C 1.289062 3.101562 0.992188 2.804688 0.992188 2.441406 L 0.992188 1.777344 C 0.992188 1.414062 1.289062 1.117188 1.652344 1.117188 L 14.222656 1.117188 C 14.589844 1.117188 14.882812 1.414062 14.882812 1.777344 L 14.882812 2.441406 C 14.882812 2.804688 14.589844 3.101562 14.222656 3.101562 Z M 14.222656 3.101562 "/>
<path style=" stroke:none;fill-rule:nonzero;fill:rgb(87.843138%,87.843138%,87.843138%);fill-opacity:1;" d="M 2.976562 1.777344 L 2.976562 14.347656 C 2.976562 14.714844 2.679688 15.007812 2.316406 15.007812 L 1.652344 15.007812 C 1.289062 15.007812 0.992188 14.714844 0.992188 14.347656 L 0.992188 1.777344 C 0.992188 1.414062 1.289062 1.117188 1.652344 1.117188 L 2.316406 1.117188 C 2.679688 1.117188 2.976562 1.414062 2.976562 1.777344 Z M 2.976562 1.777344 "/>
<path style=" stroke:none;fill-rule:nonzero;fill:rgb(87.843138%,87.843138%,87.843138%);fill-opacity:1;" d="M 14.882812 2.109375 L 14.882812 5.746094 L 12.898438 5.746094 L 12.898438 2.109375 Z M 14.882812 2.109375 "/>
<path style=" stroke:none;fill-rule:nonzero;fill:rgb(87.843138%,87.843138%,87.843138%);fill-opacity:1;" d="M 10.285156 5.40625 C 10.28125 5.40625 10.273438 5.40625 10.269531 5.40625 C 10.199219 5.40625 10.136719 5.429688 10.082031 5.46875 L 6.773438 7.78125 C 6.578125 7.917969 6.578125 8.207031 6.773438 8.34375 L 10.082031 10.660156 C 10.308594 10.820312 10.621094 10.65625 10.621094 10.378906 L 10.621094 9.054688 L 14.578125 9.054688 C 14.761719 9.054688 14.910156 8.90625 14.910156 8.726562 L 14.910156 7.402344 C 14.910156 7.21875 14.761719 7.070312 14.578125 7.070312 L 10.621094 7.070312 L 10.621094 5.746094 C 10.621094 5.5625 10.472656 5.410156 10.285156 5.40625 Z M 10.285156 5.40625 "/>
<path style=" stroke:none;fill-rule:nonzero;fill:rgb(87.843138%,87.843138%,87.843138%);fill-opacity:1;" d="M 14.222656 15.007812 L 1.652344 15.007812 C 1.289062 15.007812 0.992188 14.714844 0.992188 14.347656 L 0.992188 13.6875 C 0.992188 13.320312 1.289062 13.023438 1.652344 13.023438 L 14.222656 13.023438 C 14.589844 13.023438 14.882812 13.320312 14.882812 13.6875 L 14.882812 14.347656 C 14.882812 14.714844 14.589844 15.007812 14.222656 15.007812 Z M 14.222656 15.007812 "/>
<path style=" stroke:none;fill-rule:nonzero;fill:rgb(87.843138%,87.843138%,87.843138%);fill-opacity:1;" d="M 14.882812 10.378906 L 14.882812 14.015625 L 12.898438 14.015625 L 12.898438 10.378906 Z M 14.882812 10.378906 "/>
</g>
</svg>
